X:1
T:Quel neo, quel vago neo
T:Constantijn Huygens
T:Quel neo, quel vago neo
C:Constantijn Huygens
%%score 1 2 { ( 3 4 ) | 5 }
L:1/8
Q:1/4=75
M:4/4
K:C
V:1 treble nm="Soprano" snm="S"
V:2 treble transpose=-12 nm="Viola da Gamba" snm="V.Gam."
V:3 treble nm="Harpsichord" snm="Hpschd."
V:4 treble 
V:5 bass 
V:1
 z2 z G G3 c | AGGG z E G2- | GGAA BB d2- | d2 GG G4 | A2 DD F2 GG | AAEF G2 GF | E4 !fermata!D4 :: %7
w: Quel neo, quel|va- go ne- o, Che fà|_ d'au- ra- te fi- la om-|* bra vez- zo-|sa Al- la guan- cia a- mo-|ro- sa Un bo- schet- to è d'a-|mo- re.|
 z2 d4 AA | BBAG G2 GE | E2 A4 ^GG | A>E G4 G2 | A2 !fermata!B2 _B4- | B2 AG G3 D | _E2 D2 G3 G | %14
w: Ah! fug- gi,|fug- gi in- cau- to co- re, Se|pur co- glier vi|bra- mi ò gi- gli ò|ro- sa I-|* vi il cru- del si|ce- la, i- vi|
 c4 A2 AD | D3 D E3 F | G>G A>A B/c/d/c/ !fermata!c2 :| %17
w: sol ten- de Le|re- ti e l'ar- co e|l'al- me im- pia- ga e pren- * * * de.|
V:2
 c4 e4 | fg c2 c4 | B2 A2 G2 g2 | f4 e4 | d4 c2 _B2 | Aagf e2 B2 | c4 G4 :: g4 ^f4 | g2 d2 e2 c2 | %9
 c4 B4 | A2 B4 c2 | A2 G2 g4 | ^f4 g4 | G4 _B4 | A2 G2 ^F4 | G4 c4 | e2 f2 g2 !fermata!c2 :| %17
V:3
 z G G3 c AG | [FA][EG][EG][CE] [EG]3 [EG] | GGAA BB B2 | [Gc]2 [GB]2 [EA]2 [EG]2 | [D^F]4 =F4 | %5
 [CEA]2 [CG]2 [CEG]2 [DG][DF] | G4 [DG]4 :: B4 A4 | B2 AG G2 G2 | [CE]4 [B,E]4 | %10
 [CE]2 [DG]4 [CEG-]2 | G^F B2 [G_B]4 | [D^FA]4 [_B,DG]4 | [_B,D]4 [B,DG]4 | A_BAG A4 | GFED ECEF | %16
 c4 d2 e2 :| %17
V:4
 z G E2 [CE]2 CC | x8 | [B,D]2 [CE]2 [DG]2 [DG]2 | x8 | A,4 A,2 [_B,D]2 | x8 | ED C4 B,2 :: %7
 z2 GG AA^FF | GGFE E^F [CE]2 | x8 | x8 | D2 [DG]2 D4 | x8 | x8 | A2 G2 ^F4 | [_B,D]2 B,2 A,2 A,2 | %16
 [EG]2 [FA]2 [Gc][FB] [EGc]2 :| %17
V:5
 C,4 E,4 | F,G, C,2 C,4 | B,,2 A,,2 G,,2 G,2 | F,4 E,4 | D,4 C,2 _B,,2 | A,,A,G,F, E,2 B,,2 | %6
 C,4 G,,4 :: G,4 ^F,4 | G,2 D,2 E,2 C,2 | C,4 B,,4 | A,,2 B,,4 C,2 | A,,2 G,,2 G,4 | ^F,4 G,4 | %13
 G,,4 _B,,4 | A,,2 G,,2 ^F,,4 | G,,4 C,4 | E,2 F,2 G,2 !fermata!C,2 :| %17

